!!!COM: Igor (Fyodorovich) Stravinsky
!!!OTL: [T368_Str-13/23/1[24]1-6]
**kern	**dynam	**kern	**dynam	**kern	**dynam	**kern	**dynam	**kern	**dynam	**kern	**kern	**kern	**kern	**dynam	**kern	**kern	**dynam	**kern	**kern	**dynam	**kern	**dynam	**kern	**dynam	**kern	**dynam	**kern	**dynam	**kern	**dynam
*grp:A	*	*grp:A	*	*grp:B	*	*grp:B	*	*grp:B	*	*grp:B	*grp:B	*grp:B	*grp:B	*	*grp:B	*grp:B	*	*grp:B	*grp:B	*	*grp:A	*	*grp:A	*	*grp:A	*	*grp:A	*	*grp:B	*
*	*	*	*	*	*	*	*	*	*	*	*	*	*	*	*	*	*	*	*	*	*stria1	*	*stria1	*	*stria1	*	*stria1	*	*	*
*part14	*	*part13	*	*part12	*	*part11	*	*part10	*	*part9	*part9	*part8	*part8	*	*part7	*part7	*	*part6	*part6	*	*part5	*	*part4	*	*part3	*	*part2	*	*part1	*
*staff18	*	*staff17	*	*staff16	*	*staff15	*	*staff14	*	*staff13	*staff12	*staff11	*staff10	*	*staff9	*staff8	*	*staff7	*staff6	*	*staff5	*	*staff4	*	*staff3	*	*staff2	*	*staff1	*
*Icbass	*	*Icello	*	*Iviola	*	*Iviolin	*	*Iviolin	*	*Iarpa	*Iarpa	*Iarpa	*Iarpa	*	*Ipiano	*Ipiano	*	*Iclest	*Iclest	*	*Isdrum	*	*Ibdrum	*	*Itambn	*	*Itrngl	*	*Itromp	*
*I"C-B	*	*I"V-c	*	*I"V-le	*	*I"V-ni II	*	*I"V-ni I	*	*I"Arpa II	*	*I"Arpa I	*	*	*I"Piano	*I"Piano	*	*I"Celesta	*	*	*I"Tamb. mil.	*	*I"Gr.c.	*	*I"Tamb. de B.	*	*I"Trg.	*	*I"Trba I	*
*ITrd7c12	*	*	*	*	*	*	*	*	*	*	*	*	*	*	*	*	*	*ITrd-7c-12	*ITrd-7c-12	*	*	*	*	*	*	*	*	*	*	*
*clefF4	*	*clefF4	*	*clefC3	*	*clefG2	*	*clefG2	*	*clefG2	*clefG2	*clefF4	*clefF4	*	*clefG2	*clefG2	*	*clefG2	*clefG2	*	*clefX	*	*clefX	*	*clefX	*	*clefX	*	*clefG2	*
*k[f#c#g#d#a#]	*	*k[f#c#g#d#a#]	*	*k[f#c#g#d#a#]	*	*k[f#c#g#d#a#]	*	*k[f#c#g#d#a#]	*	*k[f#c#g#d#a#]	*k[f#c#g#d#a#]	*k[f#c#g#d#a#]	*k[f#c#g#d#a#]	*	*k[f#c#g#d#a#]	*k[f#c#g#d#a#]	*	*k[f#c#g#d#a#]	*k[f#c#g#d#a#]	*	*k[]	*	*k[]	*	*k[]	*	*k[]	*	*k[]	*
*B:	*	*B:	*	*B:	*	*B:	*	*B:	*	*B:	*B:	*B:	*B:	*	*B:	*B:	*	*B:	*B:	*	*C:	*	*C:	*	*C:	*	*C:	*	*	*
*M2/8	*	*M2/8	*	*M2/8	*	*M2/8	*	*M2/8	*	*M2/8	*M2/8	*M2/8	*M2/8	*	*M2/8	*M2/8	*	*M2/8	*M2/8	*	*M2/8	*	*M2/8	*	*M2/8	*	*M2/8	*	*M2/8	*
=1	=1	=1	=1	=1	=1	=1	=1	=1	=1	=1	=1	=1	=1	=1	=1	=1	=1	=1	=1	=1	=1	=1	=1	=1	=1	=1	=1	=1	=1	=1
!	!	!	!	!	!	!	!	!	!	!	!	!	!	!LO:DY:ed=brack	!	!	!	!	!	!LO:DY:ed=brack	!	!	!	!	!LO:TX:b:t=secouez	!	!	!	!LO:TX:t=[[quarter]=72]	!
8r	.	8r	.	4r	.	4r	.	4r	.	4r	4r	8FF#L	8G#L\	f	4r	4r	.	16ccc#LL 16fff#	16aaa#LL 16dddd#	f	4r	.	4r	.	4r	.	4r	.	4r	.
.	.	.	.	.	.	.	.	.	.	.	.	.	.	.	.	.	.	16aa# 16ddd#	16ggg# 16cccc#	.	.	.	.	.	.	.	.	.	.	.
!LO:TX:a:t=[pizz.]	!LO:DY:ed=brack	!LO:TX:a:t=[pizz.]	!LO:DY:ed=brack	!	!	!	!	!	!	!	!	!	!	!	!	!	!	!	!	!	!	!	!	!	!	!	!	!	!	!
8CC#	f	8GG#	f	.	.	.	.	.	.	.	.	8CC#J	8GG#J	.	.	.	.	16gg# 16ccc#L	16fff# 16aaa#L	.	.	.	.	.	.	.	.	.	.	.
.	.	.	.	.	.	.	.	.	.	.	.	.	.	.	.	.	.	16ff#JJ 16aa#J	16ddd#JJ 16ggg#J	.	.	.	.	.	.	.	.	.	.	.
*	*	*	*	*	*	*	*	*	*	*	*	*	*clefG2	*	*	*	*	*	*	*	*	*	*	*	*	*	*	*	*	*
!!LO:REH:t=24
=2	=2	=2	=2	=2	=2	=2	=2	=2	=2	=2	=2	=2	=2	=2	=2	=2	=2	=2	=2	=2	=2	=2	=2	=2	=2	=2	=2	=2	=2	=2
*M2/4	*	*M2/4	*	*M2/4	*	*M2/4	*	*M2/4	*	*M2/4	*M2/4	*M2/4	*M2/4	*	*M2/4	*M2/4	*	*M2/4	*M2/4	*	*M2/4	*	*M2/4	*	*M2/4	*	*M2/4	*	*M2/4	*
!	!	!	!	!	!	!	!	!LO:TX:a:t=pizz.	!	!	!	!	!	!	!	!	!	!	!	!	!	!	!	!	!	!	!	!	!	!
!	!	!	!	!LO:TX:a:t=pizz.	!	!LO:TX:a:t=pizz.	!	!LO:TX:a:t=div.	!	!	!	!	!	!	!	!	!	!	!	!	!	!	!	!	!	!	!	!	!	!
!	!	!	!	!LO:TX:a:t=div.	!LO:DY:ed=brack	!	!LO:DY:ed=brack	!LO:TX:a:rj:t=Tutti	!LO:DY:ed=brack	!	!	!	!	!	!	!	!LO:DY:i:t=Una corda e sempre poco %s	!	!	!	!	!	!	!	!	!	!	!	!	!
8EL	.	8f#L	.	8F#L 8A#	ff	8d#L 8g#	ff	8cc#L 8ff#	ff	8r	8r	16f#>/L	16ryy	.	8d#`L 8g#	8cc#`L 8ff#	sf	8ryy	8dd#L 8gg# 8ccc# 8fff#\	.	8r	.	4r	.	8r	.	8Re/	p	2r	.
*	*	*	*	*	*	*	*	*	*	*	*	*	*	*	*	*	*	*clefF4	*	*	*	*	*	*	*	*	*	*	*	*
.	.	.	.	.	.	.	.	.	.	.	.	16E	16ryy	.	.	.	.	.	.	.	.	.	.	.	.	.	.	.	.	.
.	.	.	.	.	.	.	.	.	.	.	.	.	.	.	.	.	.	.	.	.	16qqRe/LL	pp	.	.	.	.	.	.	.	.
.	.	.	.	.	.	.	.	.	.	.	.	.	.	.	.	.	.	.	.	.	16qqRe/	.	.	.	.	.	.	.	.	.
!	!	!	!	!	!	!	!	!	!	!	!	!	!	!	!	!	!	!	!	!	!	!	!	!	!	!	!	!	!	!
.	.	.	.	.	.	.	.	.	.	.	.	.	.	.	.	.	.	.	.	.	16qqRe/JJ	.	.	.	8qRe/	p	.	.	.	.
!	!	!	!	!	!	!	!	!	!	!LO:T:lv	!LO:T:lv	!	!	!	!	!	!	!	!	!	!	!	!	!	!	!	!	!	!	!
8FF#	.	8G#	.	8G# 8c#	.	8f# 8a#	.	8dd# 8gg#	.	[8c#L [8f#	[8a#L [8dd#	16G#	16ryy	.	8f#` 8a#	8dd#` 8gg#	.	8ryy	8c#< 8f#< 8a#< 8dd#<	.	8Re/	.	.	.	8Re/	.	8r	.	.	.
.	.	.	.	.	.	.	.	.	.	.	.	16C#JJJ	16ryy	.	.	.	.	.	.	.	.	.	.	.	.	.	.	.	.	.
8EEJ	.	8BBJ	.	8A# 8d#L	.	8g# 8cc#L	.	8ff# 8aa#L	.	8r	8r	16FF#LL	16ryy	.	8g#` 8cc#L	8ff#` 8aa#L	.	4ryy	8dd# 8gg# 8ccc# 8fff#L	.	4r	.	8Re/	p	4r	.	8r	.	.	.
.	.	.	.	.	.	.	.	.	.	.	.	16BBB	16ryy	.	.	.	.	.	.	.	.	.	.	.	.	.	.	.	.	.
!	!	!	!	!	!	!	!	!	!	!LO:T:lv	!LO:T:lv	!	!	!	!	!	!	!	!	!	!	!	!	!	!	!	!	!	!	!
8EL	.	8f#L	.	8c#J 8f#J	.	8a#J 8dd#J	.	8gg#J 8ccc#J	.	[8c#J [8f#	[8a#J [8dd#	16FF#	16ryy	.	8a#`J 8dd#J	8gg#`J 8ccc#J	.	.	8c#<J 8f#< 8a#< 8dd#<J	.	.	.	8r	.	.	.	8Re/	.	.	.
.	.	.	.	.	.	.	.	.	.	.	.	16C#JJ	16ryy	.	.	.	.	.	.	.	.	.	.	.	.	.	.	.	.	.
=3	=3	=3	=3	=3	=3	=3	=3	=3	=3	=3	=3	=3	=3	=3	=3	=3	=3	=3	=3	=3	=3	=3	=3	=3	=3	=3	=3	=3	=3	=3
.	.	.	.	.	.	.	.	.	.	.	.	.	.	.	.	.	.	.	.	.	16qqRe/LL	.	.	.	.	.	.	.	.	.
.	.	.	.	.	.	.	.	.	.	.	.	.	.	.	.	.	.	.	.	.	16qqRe/	.	.	.	.	.	.	.	.	.
.	.	.	.	.	.	.	.	.	.	.	.	.	.	.	.	.	.	.	.	.	16qqRe/JJ	.	.	.	8qRe/	.	.	.	.	.
8FF#L	.	8G#L	.	16d#LL 16g#	.	16cc#LL 16ff#	.	16aa#LL 16ddd#	.	8r	8r	16ELL/	8ryy	.	16cc#`LL 16ff#	16aa#`LL 16ddd#	.	2ryy	8dd#L 8gg# 8ccc# 8fff#\	.	8Re/	.	8r	.	8Re/	.	4r	.	8f#X~L	mp
.	.	.	.	16f#J 16a#	.	16dd#J 16gg#	.	16ccc#J 16fff#	.	.	.	16G#	.	.	16dd#`J 16gg#	16ccc#`J 16fff#	.	.	.	.	.	.	.	.	.	.	.	.	.	.
!	!	!	!	!	!	!	!	!	!	!LO:T:lv	!LO:T:lv	!	!	!	!	!	!	!	!	!	!	!	!	!	!	!	!	!	!	!
8DD#JJ	.	8AA#JJ	.	8d#J 8g#	.	8cc#J 8ff#	.	8aa#J 8ddd#	.	[8c#L [8f#	[8a#L [8dd#	16f#>/	16ryy	.	8cc#`J 8ff#	8aa#`J 8ddd#	.	.	8c#< 8f#< 8a#< 8dd#<	.	8r	.	8Re/	.	8r	.	.	.	8g#X~	.
.	.	.	.	.	.	.	.	.	.	.	.	16EJJ	16ryy	.	.	.	.	.	.	.	.	.	.	.	.	.	.	.	.	.
8EL	.	8f#L	.	8c#L 8f#	.	8a#L 8dd#	.	8gg#L 8ccc#	.	8r	8r	16G#LL	4ryy	.	8a#`L 8dd#	8gg#`L 8ccc#	.	.	8dd# 8gg# 8ccc# 8fff#L	.	8r	.	4r	.	8r	.	8Re/	.	8a#X~L	.
.	.	.	.	.	.	.	.	.	.	.	.	16C#	.	.	.	.	.	.	.	.	.	.	.	.	.	.	.	.	.	.
.	.	.	.	.	.	.	.	.	.	.	.	.	.	.	.	.	.	.	.	.	16qqRe/LL	.	.	.	.	.	.	.	.	.
.	.	.	.	.	.	.	.	.	.	.	.	.	.	.	.	.	.	.	.	.	16qqRe/	.	.	.	.	.	.	.	.	.
.	.	.	.	.	.	.	.	.	.	.	.	.	.	.	.	.	.	.	.	.	16qqRe/JJ	.	.	.	8qRe/	.	.	.	.	.
!	!	!	!	!	!	!	!	!	!	!LO:T:lv	!LO:T:lv	!	!	!	!	!	!	!	!	!	!	!	!	!	!	!	!	!	!	!
8FF#	.	8G#	.	16A#L 16d#	.	16g#L 16cc#	.	16ff#L 16aa#	.	[8c#J [8f#	[8a#J [8dd#	16FF#	.	.	16g#`L 16cc#	16ff#`L 16aa#	.	.	8c#<J 8f#< 8a#< 8dd#<J	.	8Re/	.	.	.	8Re/	.	8r	.	8cc#X~JJ	.
.	.	.	.	16G#JJ 16c#	.	16f#JJ 16a#	.	16dd#JJ 16gg#	.	.	.	16BBBJJ	.	.	16f#`JJ 16a#	16dd#`JJ 16gg#	.	.	.	.	.	.	.	.	.	.	.	.	.	.
=4	=4	=4	=4	=4	=4	=4	=4	=4	=4	=4	=4	=4	=4	=4	=4	=4	=4	=4	=4	=4	=4	=4	=4	=4	=4	=4	=4	=4	=4	=4
8CC#J	.	8GG#J	.	8F#L 8A#	.	8d#L 8g#	.	8cc#L 8ff#	.	8r	8r	16FF#LL	4ryy	.	8d#`L 8g#	8cc#`L 8ff#	.	2ryy	8dd#L 8gg# 8ccc# 8fff#\	.	4r	.	8Re/	.	4r	.	8r	.	(16dd#X'LL	.
.	.	.	.	.	.	.	.	.	.	.	.	16C#	.	.	.	.	.	.	.	.	.	.	.	.	.	.	.	.	16ff#X'J)	.
!	!	!	!	!	!	!	!	!	!	!LO:T:lv	!LO:T:lv	!	!	!	!	!	!	!	!	!	!	!	!	!	!	!	!	!	!	!
8EL	.	8f#L	.	8G# 8c#	.	8f# 8a#	.	8dd# 8gg#	.	[8c#L [8f#	[8a#L [8dd#	16E	.	.	8f#` 8a#	8dd#` 8gg#	.	.	8c#< 8f#< 8a#< 8dd#<	.	.	.	8r	.	.	.	8Re/	.	8dd#J	.
.	.	.	.	.	.	.	.	.	.	.	.	16G#JJ	.	.	.	.	.	.	.	.	.	.	.	.	.	.	.	.	.	.
.	.	.	.	.	.	.	.	.	.	.	.	.	.	.	.	.	.	.	.	.	16qqRe/LL	.	.	.	.	.	.	.	.	.
.	.	.	.	.	.	.	.	.	.	.	.	.	.	.	.	.	.	.	.	.	16qqRe/	.	.	.	.	.	.	.	.	.
.	.	.	.	.	.	.	.	.	.	.	.	.	.	.	.	.	.	.	.	.	16qqRe/JJ	.	.	.	8qRe/	.	.	.	.	.
8FF#L	.	8G#L	.	8A# 8d#L	.	8g# 8cc#L	.	8ff# 8aa#L	.	8r	8r	16f#>LL	16ryy	.	8g#` 8cc#L	8ff#` 8aa#L	.	.	8dd# 8gg# 8ccc# 8fff#L	.	8Re/	.	8r	.	8Re/	.	4r	.	8cc#XL	.
.	.	.	.	.	.	.	.	.	.	.	.	16E	8.ryy	.	.	.	.	.	.	.	.	.	.	.	.	.	.	.	.	.
!	!	!	!	!	!	!	!	!	!	!LO:T:lv	!LO:T:lv	!	!	!	!	!	!	!	!	!	!	!	!	!	!	!	!	!	!	!
8EEJJ	.	8BBJJ	.	8c#J 8f#J	.	8a#J 8dd#J	.	8gg#J 8ccc#J	.	[8c#J [8f#	[8a#J [8dd#	16G#	.	.	8a#`J 8dd#J	8gg#`J 8ccc#J	.	.	8c#<J 8f#< 8a#< 8dd#<J	.	8r	.	8Re/	.	8r	.	.	.	(16a#X'L	.
.	.	.	.	.	.	.	.	.	.	.	.	16C#JJ	.	.	.	.	.	.	.	.	.	.	.	.	.	.	.	.	16g#X'JJ)	.
!!pagebreak:original
=5	=5	=5	=5	=5	=5	=5	=5	=5	=5	=5	=5	=5	=5	=5	=5	=5	=5	=5	=5	=5	=5	=5	=5	=5	=5	=5	=5	=5	=5	=5
8EL	.	8f#L	.	8d#L 8g#	.	8cc#L 8ff#	.	8aa#L 8ddd#	.	8r	8r	16FF#LL	4ryy	.	8cc#`L 8ff#	8aa#`L 8ddd#	.	2ryy	8dd#L 8gg# 8ccc# 8fff#\	.	8r	.	4r	.	8r	.	8Re/	.	8f#X	.
.	.	.	.	.	.	.	.	.	.	.	.	16BBB	.	.	.	.	.	.	.	.	.	.	.	.	.	.	.	.	.	.
.	.	.	.	.	.	.	.	.	.	.	.	.	.	.	.	.	.	.	.	.	16qqRe/LL	.	.	.	.	.	.	.	.	.
.	.	.	.	.	.	.	.	.	.	.	.	.	.	.	.	.	.	.	.	.	16qqRe/	.	.	.	.	.	.	.	.	.
.	.	.	.	.	.	.	.	.	.	.	.	.	.	.	.	.	.	.	.	.	16qqRe/JJ	.	.	.	8qRe/	.	.	.	.	.
!	!	!	!	!	!	!	!	!	!	!LO:T:lv	!LO:T:lv	!	!	!	!	!	!	!	!	!	!	!	!	!	!	!	!	!	!	!
8FF#	.	8G#	.	8f#J 8a#	.	8dd#J 8gg#	.	8ccc#J 8fff#	.	[8c#L [8f#	[8a#L [8dd#	16FF#	.	.	8dd#`J 8gg#	8ccc#`J 8fff#	.	.	8c#< 8f#< 8a#< 8dd#<	.	8Re/	.	.	.	8Re/	.	8r	.	8r	.
.	.	.	.	.	.	.	.	.	.	.	.	16C#JJ	.	.	.	.	.	.	.	.	.	.	.	.	.	.	.	.	.	.
8DD#J	.	8AA#J	.	16d#LL 16g#	.	16cc#LL 16ff#	.	16aa#LL 16ddd#	.	8r	8r	16ELL	8ryy	.	16cc#`LL 16ff#	16aa#`LL 16ddd#	.	.	8dd# 8gg# 8ccc# 8fff#L	.	4r	.	8Re/	.	4r	.	8r	.	4r	.
.	.	.	.	16c# 16f#	.	16a# 16dd#	.	16gg# 16ccc#	.	.	.	16G#	.	.	16a#` 16dd#	16gg#` 16ccc#	.	.	.	.	.	.	.	.	.	.	.	.	.	.
!	!	!	!	!	!	!	!	!	!	!LO:T:lv	!LO:T:lv	!	!	!	!	!	!	!	!	!	!	!	!	!	!	!	!	!	!	!
8EL	.	8f#L	.	16A# 16d#	.	16g# 16cc#	.	16ff# 16aa#	.	[8c#J [8f#	[8a#J [8dd#	16f#>	16ryy	.	16g#` 16cc#	16ff#` 16aa#	.	.	8c#<J 8f#< 8a#< 8dd#<J	.	.	.	8r	.	.	.	8Re/	.	.	.
.	.	.	.	16G#JJ 16c#	.	16f#JJ 16a#	.	16dd#JJ 16gg#	.	.	.	16EJJ	16ryy	.	16f#`JJ 16a#	16dd#`JJ 16gg#	.	.	.	.	.	.	.	.	.	.	.	.	.	.
=6	=6	=6	=6	=6	=6	=6	=6	=6	=6	=6	=6	=6	=6	=6	=6	=6	=6	=6	=6	=6	=6	=6	=6	=6	=6	=6	=6	=6	=6	=6
.	.	.	.	.	.	.	.	.	.	.	.	.	.	.	.	.	.	.	.	.	16qqRe/LL	.	.	.	.	.	.	.	.	.
.	.	.	.	.	.	.	.	.	.	.	.	.	.	.	.	.	.	.	.	.	16qqRe/	.	.	.	.	.	.	.	.	.
.	.	.	.	.	.	.	.	.	.	.	.	.	.	.	.	.	.	.	.	.	16qqRe/JJ	.	.	.	8qRe/	.	.	.	.	.
8FF#L	.	8G#L	.	16F#LL 16A#	.	16d#LL 16g#	.	16cc#LL 16ff#	.	8r	8r	16G#LL	2ryy	.	16d#LL 16g#	16cc#LL 16ff#	.	2ryy	8dd#L 8gg# 8ccc# 8fff#\	.	8Re/	.	8r	.	8Re/	.	4r	.	8f#XL	.
.	.	.	.	16G# 16c#	.	16f# 16a#	.	16dd# 16gg#	.	.	.	16C#	.	.	16f# 16a#	16dd# 16gg#	.	.	.	.	.	.	.	.	.	.	.	.	.	.
8CC#JJ	.	8GG#JJ	.	16A# 16d#	.	16g# 16cc#	.	16ff# 16aa#	.	8c#L 8f#	8a#L 8dd#	16FF#	.	.	16g# 16cc#	16ff# 16aa#	.	.	8c#< 8f#< 8a#< 8dd#<	.	8r	.	8Re/	.	8r	.	.	.	8g#X	.
.	.	.	.	16c#JJ 16f#	.	16a#JJ 16dd#	.	16gg#JJ 16ccc#	.	.	.	16BBBJJ	.	.	16a#JJ 16dd#	16gg#JJ 16ccc#	.	.	.	.	.	.	.	.	.	.	.	.	.	.
8EL	.	8f#L	.	16d#LL 16g#	.	16cc#LL 16ff#	.	16aa#LL 16ddd#	.	8r	8r	16FF#LL	.	.	16cc#LL 16ff#	16aa#LL 16ddd#	.	.	8dd# 8gg# 8ccc# 8fff#L	.	8r	.	4r	.	8r	.	8Re/	.	8a#XL	.
.	.	.	.	16f# 16a#	.	16dd# 16gg#	.	16ccc# 16fff#	.	.	.	16C#	.	.	16dd# 16gg#	16ccc# 16fff#	.	.	.	.	.	.	.	.	.	.	.	.	.	.
.	.	.	.	.	.	.	.	.	.	.	.	.	.	.	.	.	.	.	.	.	16qqRe/LL	.	.	.	.	.	.	.	.	.
.	.	.	.	.	.	.	.	.	.	.	.	.	.	.	.	.	.	.	.	.	16qqRe/	.	.	.	.	.	.	.	.	.
.	.	.	.	.	.	.	.	.	.	.	.	.	.	.	.	.	.	.	.	.	16qqRe/JJ	.	.	.	8qRe/	.	.	.	.	.
8FF#	.	8G#	.	16g# 16cc#	.	16ff# 16aa#	.	16ddd# 16ggg#	.	8c#J 8f#	8a#J 8dd#	16E	.	.	16ff# 16aa#	16ddd# 16ggg#	.	.	8c#<J 8f#< 8a#< 8dd#<J	.	8Re/	.	.	.	8Re/	.	8r	.	8cc#XJJ	.
.	.	.	.	16f#JJ 16a#	.	16dd#JJ 16gg#	.	16ccc#JJ 16fff#	.	.	.	16G#JJ	.	.	16dd#JJ 16gg#	16ccc#JJ 16fff#	.	.	.	.	.	.	.	.	.	.	.	.	.	.
=7	=7	=7	=7	=7	=7	=7	=7	=7	=7	=7	=7	=7	=7	=7	=7	=7	=7	=7	=7	=7	=7	=7	=7	=7	=7	=7	=7	=7	=7	=7
8EEJ	.	8BBJ	.	16d#LL 16g#	.	16cc#LL 16ff#	.	16aa#LL 16ddd#	.	8r	8r	16f#>/L	16ryy	.	16cc#LL 16ff#	16aa#LL 16ddd#	.	2ryy	8dd#L 8gg# 8ccc# 8fff#\	.	4r	.	8Re/	.	4r	.	8r	.	12dd#XL	.
.	.	.	.	16c# 16f#	.	16a# 16dd#	.	16gg# 16ccc#	.	.	.	16E	8.ryy	.	16a# 16dd#	16gg# 16ccc#	.	.	.	.	.	.	.	.	.	.	.	.	.	.
.	.	.	.	.	.	.	.	.	.	.	.	.	.	.	.	.	.	.	.	.	.	.	.	.	.	.	.	.	12ff#X	.
8EL	.	8f#L	.	16A# 16d#	.	16g# 16cc#	.	16ff# 16aa#	.	8c#L 8f#	8a#L 8dd#	16G#	.	.	16g# 16cc#	16ff# 16aa#	.	.	8c#< 8f#< 8a#< 8dd#<	.	.	.	8r	.	.	.	8Re/	.	.	.
.	.	.	.	.	.	.	.	.	.	.	.	.	.	.	.	.	.	.	.	.	.	.	.	.	.	.	.	.	12dd#J	.
.	.	.	.	16G#JJ 16c#	.	16f#JJ 16a#	.	16dd#JJ 16gg#	.	.	.	16C#JJJ	.	.	16f#JJ 16a#	16dd#JJ 16gg#	.	.	.	.	.	.	.	.	.	.	.	.	.	.
.	.	.	.	.	.	.	.	.	.	.	.	.	.	.	.	.	.	.	.	.	16qqRe/LL	.	.	.	.	.	.	.	.	.
.	.	.	.	.	.	.	.	.	.	.	.	.	.	.	.	.	.	.	.	.	16qqRe/	.	.	.	.	.	.	.	.	.
.	.	.	.	.	.	.	.	.	.	.	.	.	.	.	.	.	.	.	.	.	16qqRe/JJ	.	.	.	8qRe/	.	.	.	.	.
8FF#L	.	8G#L	.	16F#LL 16A#	.	16d#LL 16g#	.	16cc#LL 16ff#	.	8r	8r	16FF#LL	4ryy	.	16d#LL 16g#	16cc#LL 16ff#	.	.	8dd# 8gg# 8ccc# 8fff#L	.	8Re/	.	8r	.	8Re/	.	4r	.	12cc#XL	.
.	.	.	.	16G# 16c#	.	16f# 16a#	.	16dd# 16gg#	.	.	.	16BBB	.	.	16f# 16a#	16dd# 16gg#	.	.	.	.	.	.	.	.	.	.	.	.	.	.
.	.	.	.	.	.	.	.	.	.	.	.	.	.	.	.	.	.	.	.	.	.	.	.	.	.	.	.	.	12a#X	.
8DD#JJ	.	8AA#JJ	.	16A# 16d#	.	16g# 16cc#	.	16ff# 16aa#	.	8c#J 8f#	8a#J 8dd#	16FF#	.	.	16g# 16cc#	16ff# 16aa#	.	.	8c#<J 8f#< 8a#< 8dd#<J	.	8r	.	8Re/	.	8r	.	.	.	.	.
.	.	.	.	.	.	.	.	.	.	.	.	.	.	.	.	.	.	.	.	.	.	.	.	.	.	.	.	.	12g#XJ	.
.	.	.	.	16c#JJ 16f#	.	16a#JJ 16dd#	.	16gg#JJ 16ccc#	.	.	.	16C#JJ	.	.	16a#JJ 16dd#	16gg#JJ 16ccc#	.	.	.	.	.	.	.	.	.	.	.	.	.	.
=	=	=	=	=	=	=	=	=	=	=	=	=	=	=	=	=	=	=	=	=	=	=	=	=	=	=	=	=	=	=
*-	*-	*-	*-	*-	*-	*-	*-	*-	*-	*-	*-	*-	*-	*-	*-	*-	*-	*-	*-	*-	*-	*-	*-	*-	*-	*-	*-	*-	*-	*-
!!!system-decoration: [(s1,s2,s3,s4,s5[({(s6,s7)})][({(s8,s9)})][({(s10,s11)})][({(s12,s13)})]s14,s15,s16,s17,s18)]
!!!RDF**kern: < = below
!!!RDF**kern: > = above
!!!EED: Bryan Bell
!!!EEV: 2022/10/13
!!!EED2: Jason Lee
!!!EEV2: 2022/10/17
